X:1
T:Der Rosenkavalier Concert Waltz
T:Concert Waltz
T:Richard Strauss
T:Arranged for piano by Otto Singer
T:From the Opera "Der Rosenkavalier"
C:Richard Strauss
Z:Arranged by Otto Singer
%%score { ( 1 3 ) | ( 2 4 ) }
L:1/8
Q:1/4=160
M:4/4
K:E
V:1 treble nm="Piano" snm="Pno."
V:3 treble 
V:2 bass 
V:4 bass 
V:1
"^Animato""^Introduction" B,>G | .c z !>!B4!p! z2 | %2
!pp![Q:1/4=80] !fermata![gbe'g']4[Q:1/4=160] z2!f! B,>G | .c z !>!B4!p! z2 | %4
!pp![Q:1/4=80]!8va(! !fermata![b^e'g'b']4!8va)![Q:1/4=160] z2!mf! g/a/g/a/ | %5
 b4 f2"_cresc." g/a/g/a/ | b4 f2!f! a/b/a/b/ |!sfz! c'2!f! f/g/f/g/ a z d/e/d/e/ | %8
 fz/B/.d.e .fz/d/.f.g |"_dim." .a.f.a.b .c'.a.c'.d' | .e' z .c' z .e' z .^e' z | %11
 .f' z z2!pp! .^^f'[Q:1/4=24] !fermata!z!p![Q:1/4=144] B,>G || %12
[M:3/4][Q:1/4=144]"^Tempo di Valse" c z z2 B2- | B2 [ce]3 [df] | [eg]6 | z2 B2 (3egb | %16
 [fa]3 [eg] [df]2- | [df]2 [eg]2 [Gce]2 | [df]6 | z2!p! B2 (3dfb | [fa]4 [eg]2- | %21
 [eg]2 [c'e']3 [ac'] | [gb]6- | [gb]3!<(! [eg] [df][ce]!<)! |!mp! d2 (3edc d2 | %25
 [Af]2 [=Ge]2 [F^A]2 | c2 B4 | z2 B3 ^B | ^B4 c2- | c2 B2 ^Bc | !arpeggio![Ada]6 | %31
 z2!>(! B3 ^B!>)! |!p! ^B4 c2- | c2 B2!>(! ^Bc!>)! |!pp!{/=d} [dg]6 | z2 B3 g | %36
 !arpeggio![^db]4 a2- | a2!<(! B3 =g!<)! |!p!!>(! [c=gc']4!pp! [B^gb]2!>)! | z2!p! B3 g | g4 a2 | %41
 a2 e2 f2 | [d^^f]4 [eg]2 | z2 B3 g | !arpeggio![^db]4 a2- | a2!<(! B3 =g!<)! | %46
!p!!>(! [c=gc']4!pp! [B^gb]2!>)! | z2!<(! B3!p! b!<)! |!>(! [=db=d']4!>)!!pp! [=ca=c']2 | %49
 z2!<(! =d3!mp! _b!<)! |!>(! [e_be']4!p! [=d=b=d']2-!>)! | [dbd'] z!p! [=ge'=g']2 [e=c'e']2 | %52
 [=db]2!p! d/c/d/c/ d/=g/f/e/ | =d z!mp!!>(! [=Ge=g]2 [E=ce]2 | %54
 [=DB=d]2!>)!!p! D/C/D/C/ D/=G/F/E/ |[Q:1/4=130]"^ritard" =D2 z2!pp! [Bb]2- | %56
[Q:1/4=144]"^a tempo" [Bb]2 [^B^b]2 [dd']2 | [cac']2 [Bgb]2 [Afa]2 | [eg]6- | %59
!<(! [eg]4 [Bb]2-!<)! |!f! [Bb]2 [^B^b]2 [dd']2 | [cac']2 [Bgb]2 [Afa]2 | [Gg]6- | [Gg]4 [Gg]2 | %64
!mf! [Geg]2!<(! [^^Fd^^f]2 [Geg]2!<)! |!f! [=cb]2!>(! [^ca]2 [Af]2 | [Ge]6!>)! |!p!{/c} [Bb]6 | %68
!mp!!>(! [Bb]4 z2!>)! |!p!{/c} [Bb]6 | [Bb]4 z2 | z2!<(! !>!B2 !>!e!>!g!<)! | %72
!f! [Bdab]2 [^B^b]2 [dd']2 | [cac']2"_dim." [Bgb]2 [Afa]2 | [eg]6- | [eg]4!pp! [=G=g]2 | %76
 [=G=g]2 [^G^g]2 [Bb]2 | [A=fa]2 [=Ge=g]2 [=F=df]2 | [=ce]6- | [ce]4!mf! ee' | [ec'e']4 e[bd'] | %81
 [ebd']4 e[ac'] | [eac']4 c[gb] | [cgb]4 c[fa] | [cfa]4 c[Bg] | [Bcg]4 c[Af] | %86
 [Acf]4[Q:1/4=132] E[=Ge] | e3 d{/f} ec |[Q:1/4=144] B6- | B2"_dim." g2 e2 | B6- | %91
[Q:1/4=132] B4!p![Q:1/4=144] b[ge'g'] | [ge'g']4!<(! b[fd'f']!<)! |!p! [fd'f']4!<(! b[ec'e']!<)! | %94
!p! [ec'e']4!<(! [eg][bd']!<)! |!p! [dbd']4!<(! e[ac']!<)! |!p! [ac']3!<(! [gb] [e'g']2!<)! | %97
!mp! .[Gg]2!>(! .[Aa]2 .[Bgb]2!>)! |!p! [da]6- | [da]4!8va(!!<(! c'[f'a']!<)! | %100
!p! [abf'a']4!<(! c'[e'c'']!<)! |!p! [e'c'']4!<(! [ab][=d'f']!<)! |!p! [f=d'f']4 a[=c'a'] | %103
 [a=c'a']4!8va)! ^d[b^d'] | [dabd']3 [gg'] [ff']2 | [dad']2 [eb]2 [da]2 | [eg]6- | %107
 [eg]4!p!!8va(! b[g'b'] | [bg'b']4 b[f'a'] | [af'a']4 b[e'g'] | [ge'g']4 g[d'f'] | %111
"_cresc." [fd'f']4 b[ec'e'] | [ec'e']3 [bd'] [ac']2 | [ab]2 [gg']2 [bb']2!8va)! | %114
!f!!<(! g2[Q:1/4=132] [Ff]2 [=F=f]2 | [Ee]2!<)!!ff! [Dd]2!f![Q:1/4=144] e[ac'] | [eac']4 e[=ge'] | %117
 [e=ge']4 A[=fa] | [A=fa]4 =c[_e=c'] | [=c_e=c']4!ff![Q:1/4=150]"^più vivo" ^D^A | %120
 ^A3 c/B/ F/B/d/f/ | a z [ABa] z [ABa] z | ^A3 c/B/ G/B/e/g/ | b z [Beb] z [Beb] z | %124
 ^A3 c/B/[I:staff +1] F/[I:staff -1]B/d/f/ | d' z [dabd'] z [dabd'] z | [ege']3 d'!f!{/f'} e'c' | %127
 b3 ^a{/c'} bg | A3[Q:1/4=132]"_espr."!mf! e{/=g} =f=d | .^D2 .E2"_dim." .^E2 | .F2 .=G2 .^G2 | %131
 .A2 .^A2 .B2 | .=c2 .^c2!p! .d2 |[Q:1/4=144] z2!p! ef=de | z2 c=dBc | z2 ABGA | FGEF^DF |!<(! E6 | %138
 =F6 |[Q:1/4=132]"^ritard" ^F4!<)!!mf! =G2- | G2 ^G4 ||[K:A]!p![Q:1/4=144]"^a tempo" A6 | %142
 z2 [A,C] z z2 | z2 [A,C] z z2 | z2 [A,C] z!p! E2 | e4 fe | a4 c>e | d2 decd | [GB]4 E2 | A3 F A2 | %150
 B3 E B2 | [Ac]2 [ce]2 [Fd]2 | [Ac]2 [GB]2 E2 | e4 fe | c'4 f>a | e2 =g2 f2 | [ce]2 [Bd]2 =B2 | %157
 A3 ^F A2 | B2 d2 c2 | [DGB]6 |!p! [CEA]2 z2 e2 | d2 decd | B4 E2 | e4 fe | a4 e2 | d2 decd | %166
 d4 E2 | e4 fe | [cac']4 [Aa]2 | [Acf]2 fgef | d2 decd | B2 BcAB | G2 f2 e2 | c3 e d2 | %174
!>(! A3 c B2!>)! |!pp! A6 | A2 GAGA | [DB]3 [B,G] [CA]2 | [Ac]2 [G^B][Ac][GB][Ac] | %179
 [Bd]3 [GB] [Ac]2 |!<(! e2 ^dede!<)! |!mp! [Aa]3 [Bb] [cc']2 |!>(! .[Ee]2 .[Fe]2 .[Ge]2!>)! | %183
!p! [Ae]6 | G,A,G,A, GA | [_EA=c]6 | _ED D_DD=C | [D=F_B=c]6 | [E=G_B=c]6- | [EGBc]6 | %190
!mf! E/4=F/4E/4F/4D D_DD=C ||[K:F] [FA]6 | PED D_DDC | [EB]6 | PED D_DDC | %195
 .[EB=d]2 z .[EBd] .[EBd]2 | .[Bdf]2 z .[Bdf] .[Bdf]2 | .[EBc]2 z .[EBc] .[EBc]2 | Ped d_ddc | %199
 [Afa]6 | Ped d_ddc | [=B^d=b]6 | Pc'=b!f! b^aa=a | .[ea^c']2 z .[eac'] .[eac']2 | %204
 .[e^gd'e']2 z .[egd'e'] .[egd'e']2 | [a^c'a']6 | [a^c'a']2 z!p! ^F (3FG^G ||[K:D] B z z2 (3c=cB | %208
 G z z2 (3F^GB | A2 [df]3 .[df] | [df]4 (3fgf |!pp! [fa]4 [eg]2- | [eg]2 [df]4 | %213
 [fa] z [eg]3 [df] | [fa]4!p! (3FG^G | B z z2 (3c=cB | G z z2 (3F^GB | A2 [df]3 [df] | %218
 [df]4!pp! (3aba | [dfd']4 [cc']2- | [cc']2 [Bb]4 | [dgd'] z [cc']3 b | %222
 [dgad']4!<(! (3c'd'^d'!<)! |!p! f' z z2 (3=f'e'c' | a z z2 (3ga^a | c' z z2 (3=c'bg | %226
 e z z2 (3e=f^f | a z z2 (3gec | A z z2!mf! (3^ABG | F6- | F4 (3FG^G | B z z2 (3c=cB | %232
 G z z2 (3F^GB | A2 [df]3!>(! [df] | [df]4 (3fgf!>)! |!pp! [fa]4 [eg]2- | [eg]2 [df]4 | %237
 [=c^da] z [Bg]3 [Af] | [GBeg]4!<(! (3g^ab!<)! |!p! [gf'] z z2 (3e'bg | e z z2 (3fg^g | %241
 b z z2 (3afd | A z z2"_dim." (3ABA | [=c^df] z!pp! z2 (3fag | e z z2!<(! (3egf!<)! |!p! d6- | %246
 d2 c3 B | d6 | c2 d2 ^d2 | e6- | e2 f3 g | ^e6 |!<(! f2 g2 ^g2!<)! |!mp! b6- | b2 a3 ^g | b6- | %256
 b2 a3 f | a6- | a2 g3 ^e |!pp! f z z2 (3^ab^b | ^d' z z2!<(! (3c'^af!<)! |!p! e6 | %262
 e4!<(! =f^f!<)! |"^un poco calando"!mp! a3[Q:1/4=136]!>(! ge_B | ed_B[Q:1/4=128]GBE!>)! |!p! G6- | %266
 G2[Q:1/4=120] _G4- | G2 =F2!>(! =G2 |[Q:1/4=112] [=FA]2 [G_B]2!>)!!pp! [_EF=c]2 || %269
[K:Bb][Q:1/4=144]"^a tempo"!p!{/DF} d4 c2 |{/DF} c4 B2 |{/DF} B4 A2 |{/DF} c4 G2 |{/D} B3 D G2- | %274
 G2!<(! (3FBd f2 | b3 a g2- | ga g2 a2!<)! |!f! f6- | f6 |{/EF} c4 B2 |{/D^F} d4 A2 |{/E=F} c4 B2 | %282
{/D^F} d4 A2 |!>(!{/e=f} c'3 b a2- | ag f3 e!>)! |!p! [Bdb]4 [Aa]2 | [Ada]4 [Gg]2 | %287
{/Gcd} g4 [^F^f]2 |{/Acd} a4 e2 |!mf! [d^fd']4 [^c^c']2 | [^c^f^c']4 [=B=b]2 | %291
{/=B=e^f} =b4 [^A^a]2 |{/^c=e^f} ^c'4 g2 |{/=fad'} f'4 [=e=e']2 |{/=ea} =e'4 [dd']2 | %295
{/dg} d'4 [cc']2 | [ebe']4 _g2 |{/Bd} b4 [Aa]2 | [Ada]4"_dim." [Gg]2 | [=Bd]3 [df] [ce]2- | %300
 [ce]d [ce]3 [Fc] |!p! [EB]4{/B} d z | G4{/d} f z | =E2 (3FBd (3fgf | b z .a z .g z | %305
 .f z .e z .d z | df [ce]3 [=Bd] | [ce]6 | F4 E2 | E4 D2 | F4 C2 | E4 D2 | F6- | F4!mf!{/B} d z | %314
 G4{/d} f z | =E2 (3FBd (3fgf | d'2 c' z .b z | a2 g z .f z | [^c=e]g [df]3 [ce] |!mf! [df]6 | %320
 G4!>(! F2 | F4!>)!!p! E2 | G4 D2 | F4 (3EAe | d6 ||[K:Eb]!f! B2 z2 (3bBe | %326
 .[Gc] z .[Gc] z .[Gc] z | z2 z2 (3bBe | .[Gc] z .[Gc] z .[Gc] z | [egc']4 !arpeggio![dgd']2 | %330
 [dgd']2 !arpeggio![cgc']4 |{/b} g'2 f'e'd'c' | P[gb]2 [fa] z [fa] z |!f! z2 z2 (3[d'f']fa | %334
 d z [GB]3 [ce] | [df]4 (3[d'f']fa | d z [GB]3 [ce] | [df]4{/b} [aa']2- | [aa']2{/b} [gg']4 | %339
{/f} [af']2 e'd'fb | P[fa]2 [eg] z [eg] z |!mf! z2 z2 (3bBe | .[Gc] z .[Gc] z .[Gc] z | %343
 z2 z2 (3bBe | .[Gc] z .[Gc] z .[Gc] z |{/b} [ge'g']4{/f} [fbf']2- | [fbf']2 [ebe']4 | %347
!f!{/B} [_db]4{/B} [da]2- | [da]2{/B} [_dg]4 |!p! [cf]2 e=dcB | P[FA]2 [EG] z [EG] z | %351
 P[GB]2 [FA] z [FA] z | P[^Fc]2 [GB] z [GB] z |!mf! !arpeggio![ABa]2 gfed | Pc2 B z B z | %355
 P[Ge]2 [Fd] z [Fd] z | P[Af]2 [Ge] z [Ge] z |!f!{/e} e'2 d'c'b=a | c'bge =A2 | b z [_Af]3 [Bg] | %360
 [Ge]4!p! (3B,EG | [AB]6 | [EB]4!<(![I:staff +1] (3B,[I:staff -1]Ge | g!<)! z!mf! [Af]3 [Fd] | %364
 [GB]4!p! (3B,EG | [AB]6 | [_D_GB]4 (3DGB | [E=Ac]4 (3EAc | %368
 [^Fcd]4!mf![I:staff +1] (3D[I:staff -1]=Ac | [_df] z [_ce]3 c | [=ca] z [B=g]3 [Ge] | %371
 B z .[FA] z .[EG] z | [EG]6 |!mf! Pgf fe eB | [GB]6 | Pgf fe eB | [GB]6 | Pgf fe eB | %378
 [GB]2 z .B"_dim." B2 | [Adfa]2 z [fa] [fa]2 | [GBeg]6 |!pp! Pgf fe eB | [GB]6 | PGF FEEB, | %384
[K:bass][Q:1/4=130]"_rall.  -      -" .G,2 .F,2 .E,2 | %385
[Q:1/4=116] B,,2[Q:1/4=60] z2[K:treble][Q:1/4=130]"^più tranquillo" b[ge'g'] | [ge'g']4 b[fd'f'] | %387
 [fd'f']4 b[ec'e'] | [ec'e']4 [eg][bd'] | [dbd']4 e[ac'] |!<(! [ac']3 [gb] [e'g']2!<)! | %391
!p!!<(! [Gg]2 [Aa]2 [Bgb]2!<)! |!mp! [da]6- |!mp! [da]4!mp!!8va(!!<(! b[f'a']!<)! | %394
!mf! [bf'a']4!<(! c'[e'c'']!<)!!mp! |!mf! [c'e'c'']4!<(! [ab][_d'f']!<)!!mp! | %396
!mf! [f_d'f']4!<(! a[_c'a']!<)!!mp! |!mf! [a_c'a']4!8va)!!<(! =d[b=d']!<)!!mp! | %398
!mf! [dabd']3!<(! [gg'] [ff']2!<)! |!f! [dad']2 [eb]2 [da]2 | [eg]6- | [eg]4!pp!!8va(! b[g'b'] | %402
 [bg'b']4 b[f'a'] | [af'a']4 b[e'g'] | [ge'g']4 g[d'f'] | [fd'f']4 b[ec'e'] | %406
 [ec'e']3 [bd'] [ac']2 | [ab]2 [gg']2 [bb']2!8va)! |!f! g2!<(! f2 =e2 | _e2 d2 e[ac']!<)! | %410
!ff! [eac']4!pp! e[_ge'] | [e_ge']4 =A[e=a] | [Be=a]4!<(! c[ec']!<)! |!p! [c=ec']4 G[_dg] | %414
 [Gcg]3 [Bb] [Aa]2 |!>(! [=E=e]2 [Gg]2 [Ff]2!>)! |!pp! [_EG-_e-]6 | [Ge]4 Bb | [dab]6- | %419
 [dab]4 B[dab] | [egb]6- | [egb]4!<(! Bb!<)! |!p! [dab]6 |!pp!!8va(! [c'a']2 [bg']2 [af']2 | %424
 [ge']3 d'{/f'} e'c'!8va)! | b3"_cresc." =a{/c'} bg | %426
[Q:1/4=144]"^stringendo" ed{/f} ec[Q:1/4=160]B=A | BG ED[Q:1/4=172]{/F}EC | B,D EG[Q:1/4=188]Bd | %429
 eg b z!ff! [dfabd'] z | [egbe'] z z4 |] %431
V:2
!f! B,,>G, | .C z !>!B,4[K:treble] E>c | !fermata![Be]4 z2[K:bass] B,,>G, | %3
 .C z !>!B,4[K:treble] G>e | !fermata![=d^e]4 z2[K:bass] B,,>G, | .C z B,4 ^E,>=D | %6
 .G z F4[K:treble] B,>^E | c2 A/B/A/B/ c z F/G/F/G/ | Az/D/.F.G .Az/F/.A.B | .c.A.c.d .e.c.e.f | %10
 .=g z .e z .g z .^g z | .a z z2 .^a !fermata!z z2 || %12
[M:3/4][K:bass]!pp!!ped! E,, z [G,B,E] z [G,B,E]!ped-up! z |!ped! B,, z [B,FA] z [B,FA]!ped-up! z | %14
!ped! E, z [B,E] z [B,E]!ped-up! z |!ped! B,, z [G,B,E] z [G,B,E]!ped-up! z | %16
!ped! F, z [A,B,D] z [A,B,D]!ped-up! z |!ped! B,, z [G,CE] z B,!ped-up! z | %18
!ped! z2 [A,B,D] z [A,B,D]!ped-up! z |!pp!!ped! B,, z [A,B,DF] z [A,B,DF]!ped-up! z | %20
!ped! E, z [G,B,E] z [G,B,E]!ped-up! z |!ped! E, z [A,CE] z [A,CE]!ped-up! z | %22
!ped! E, z [G,B,E] z [G,B,E]!ped-up! z |!ped! C, z!<(! [G,CE] z [G,CE]!ped-up! z!<)! | %24
!p!!ped! F, z [B,D] z [DF]!ped-up! z | B,2 C3 E |!ped! B,, z [F,B,] z [F,B,]!ped-up! z | %27
!ped! B,, z [F,B,D] z [F,B,D]!ped-up! z |!ped! A,2 [DF] z [DF]!ped-up! z | %29
!ped! F, z [B,DA] z [B,DA]!ped-up! z |!ped!{/B,,} B,2!ped-up! ^B,2 D2 | C2!>(! B,2 ^A,2!>)! | %32
!pp!!ped! =A,2 [DF] z [DF]!ped-up! z |!ped! F, z [B,DA] z [B,DA]!ped-up! z | %34
!ped! ^E,2 [B,=DG] z [B,DG]!ped-up! z |!ped! B,, z [B,=DG] z [B,DG]!ped-up! z | %36
!ped! F, z [B,^DA] z [B,DA]!ped-up! z |!ped! B,, z [A,D]2 [^A,CE]2!ped-up! | %38
!ped! E, z [^A,E=G] z [B,E^G]!ped-up! z |!pp!!ped! B,, z [B,^DA] z [B,DA]!ped-up! z | %40
!ped! F, z [A,B,D] z [A,B,D]!ped-up! z |!ped! B,, z [A,B,] z [A,B,]!ped-up! z | %42
!ped! E, z [B,D] z [B,E]!ped-up! z |!ped! B,, z [B,=DG] z [B,DG]!ped-up! z | %44
!ped! F, z [B,^DA] z [B,DA]!ped-up! z |!ped! B,, z [A,D]2 [^A,CE]2!ped-up! | %46
!ped! E, z [^A,E=G] z [B,E^G]!ped-up! z | [B,EG] z E,2!p! D,2 | %48
!pp!!ped! =D, z [=C=DF] z [CDF]!ped-up! z |!ped! A,, z [=C=DF] z!p! [CDF]!ped-up! z | %50
!ped!!>(! =G,, z [=G,_B,^C] z!>)!!pp! [G,=B,=D]!ped-up! z | [B,=D=G] z[K:treble] e2 =c2 | B6- | %53
 B z E2 =C2 | B,4- B, z | z2[K:bass] C2 =C2 |!ped! z2 [DA] z [DA]!ped-up! z | %57
!ped! z2 [B,D] z [B,D]!ped-up! z |!ped! E,2 [G,B,E] z [G,B,E]!ped-up! z | %59
!ped! B,, z!<(! [G,B,E] z [G,B,E]!ped-up! z!<)! |!mf!!ped! [F,,F,] z [A,B,D] z [A,B,D]!ped-up! z | %61
!ped! [B,,,B,,] z [A,B,D] z [A,B,D]!ped-up! z |!ped! [^B,,,^B,,] z [G,DF] z [G,DF]!ped-up! z | %63
!ped! [G,,,G,,] z!>(! [G,DF] z [G,DF]!ped-up! z!>)! |!mp!!ped! C, z [G,CE] z [G,CE]!ped-up! z | %65
!ped! [A,,F,]2 A,2!ped-up! =C2 |!ped! B,,2 [G,B,E] z [G,B,E]!ped-up! z | %67
!ped! z2!pp! [G,E]2 [B,=D]2!ped-up! |!ped! B,,2 [A,B,^D] z [A,B,D]!ped-up! z | %69
!ped! z2 [A,D]2 C2!ped-up! |!ped! E,,2 [E,G,B,] z [E,G,B,]!ped-up! z | [E,G,B,] z !>!B,2 !>!E!>!G | %72
!ped! [F,,F,] z [A,B,D] z [A,B,D]!ped-up! z |!ped! [B,,,B,,] z [A,B,D] z [A,B,D]!ped-up! z | %74
!ped! [E,,E,] z [G,B,E] z [G,B,E]!ped-up! z |!ped! [B,,,B,,] z [G,B,E] z!ped-up! z2 | %76
!ped! E, z [G,B,=F] z [G,B,F]!ped-up! z |!ped! =G,, z [=G,B,] z [G,B,]!ped-up! z | %78
!ped! =C, z [=G,=C] z [G,C]!ped-up! z |!ped! B,, z [^G,=C] z!ped-up! z2 | %80
!mp!!ped! A,,2 [E,A,^C] z!ped-up! z2 |!ped! E,,2 [E,A,C] z!ped-up! z2 | %82
!ped! A,,2 [E,A,C] z!ped-up! z2 |!ped! E,,2 [E,A,C] z!ped-up! z2 |!ped! F,,2 [F,A,C] z!ped-up! z2 | %85
!ped! G,,2 [G,C^E] z!ped-up! z2 |!ped! A,,2 [A,CF] z!ped-up! z2 | z2 B,2 C2 | %88
!ped! B,,2 [G,E]2 B,G | [EG]6 | [EG]2 .B,,, z B,2!ped-up! | [FA]2 [EG]2 [B,F]2 | %92
!ped! !arpeggio![E,,B,,E,]2 [G,B,E]2 [G,B,E]2!ped-up! | %93
!ped! [B,,,B,,]2!p! [G,B,E]2 [G,B,E]2!ped-up! | %94
!ped! !arpeggio![E,,B,,E,]2!p! [G,B,E]2 [G,B,E]2!ped-up! | %95
!ped! [B,,,B,,]2!p! [G,B,E]2 [G,B,E]2!ped-up! | %96
!ped! !arpeggio![E,,B,,E,]2!p! [G,B,E]2 [G,B,E]2!ped-up! |!ped! .B,2 .C2 .=D2!ped-up! | %98
!ped! B,2!pp! ^D z D z |!mp! F,,2!pp! [B,D] z z2!ped-up! |!p!!ped! B,,2!pp! [A,B,DF] z z2!ped-up! | %101
!p!!ped! A,,2!pp! [A,CE] z z2!ped-up! |!p!!ped! !arpeggio![=D,,A,,=D,]2!pp! [A,=DF] z z2!ped-up! | %103
!mp!!ped! [=F,,,=F,,]2!pp! [A,=C=F] z z2!ped-up! |!mp!!ped! ^F,,2!pp! [B,DA] z [B,DA] z!ped-up! | %105
!p!!ped! B,,2!pp! [A,CF] z [B,F] z!ped-up! |!p!!ped! E,2 [B,E] z [B,E] z | %107
!p! E,,2 [B,E] z z2!ped-up! |!p!!ped! E,2 [B,EG] z z2!ped-up! |!ped! B,,2 [B,EG] z z2!ped-up! | %110
!ped! E,2 [B,EG] z z2!ped-up! |!ped! B,,2 [G,B,E] z [G,B,E] z!ped-up! | %112
!ped! E,2 [G,B,E] z [G,B,E] z!ped-up! | =D2 [B,D] z [B,D] z |!ped! z2 [A,C] z [A,C] z | %115
 [A,C]2 [A,C]!ped-up! z !arpeggio![F,A,=D]2 |!ped! z2 [E,A,C] z z2!ped-up! | %117
!ped! z2 [=G,=CE] z z2!ped-up! |!ped! z2 [=F,A,=C] z z2!ped-up! | %119
!ped! [_A,,,_A,,]2 [_A,=C_E] z!ped-up! z2 |!f!!ped! !>!F,,2 [A,B,D] z [A,B,D] z!ped-up! | %121
!ped! B,,2 [B,D] z [B,D] z!ped-up! |!ped! E,2 [G,B,] z [B,E] z!ped-up! | B,,2 [B,G] z [B,G] z | %124
!ped! F,2 [A,B,D] z z2!ped-up! | B,,2 [B,FA] z [B,FA] z |!ped! E,2 [B,EG] z z2!ped-up! | %127
!ped! E,,2 [=F,G,B,=D] z z2!ped-up! |!ped! E,2 [A,=C=F] z z2!ped-up! | %129
!ped! E,,2 !arpeggio![B,,D,A,] z z2 | !arpeggio![D,A,B,] z z2 !arpeggio![F,B,D] z | %131
 z2 !arpeggio![A,DF] z z2 | !arpeggio![B,FA] z z2[K:treble] !arpeggio![FAB]!ped-up! z | %133
[K:bass] E, z[K:treble]!pp! [GB]2 [FA]2 |[K:bass]!p! E,, z[K:treble]!pp! [EG]2 [=DF]2 | %135
[K:bass] z2 [CE]2 [B,=D]2 | [A,C]2 [G,B,]2 [F,A,]2 | [G,B,]2 =D z E, z | [G,B,]2 =D z =D, z | %139
 [G,B,]2 =D z B,, z |!>(! [G,B,]2 =D z!>)!!mp! E,, z ||[K:A] A,,2 E, z E,, z | A,,2 E, z C,E, | %143
 A,,2 E, z C,E, | A,,2 E, z z2 |!pp!!ped! A,,2 [E,A,C] z z2!ped-up! |!ped! C,2 [A,E] z z2!ped-up! | %147
 E,6 |!ped! E,2 [G,B,] z z2!ped-up! |!ped! [F,C]2 A, z z2!ped-up! |!ped! E,2 [G,B,] z z2!ped-up! | %151
 [A,E]4 [D,B,]2 | [E,E]4 z2 |!ped! A,,2 [E,C]4 | [A,E]2 [CA] z!ped-up! z2 | ^A,,6 | %156
 B,,2 D,2 [=F,D]2 |!ped! [^F,C]2 A, z z2!ped-up! |!ped! [E,D]6!ped-up! | z2!pp! E, z E, z | %160
!pp! E, z E,A, C2 | E,6 | E,, z E, z E, z | z2 A,2 G,2 |!ped! [A,,E,]A,CE C2!ped-up! | E,6 | %166
 E,, z!pp! E, z E, z |!pp! z2 A,2 G,2 |!ped! E,2 E,A,CE!ped-up! | %169
!ped! F,,2[K:treble] A2 G2!ped-up! | [FA]2 [FA]2 [EG]2 | [DF]2 [G,DF]2 [A,CF]2 | %172
 [B,DF]2 [^B,^D]2 [CE]2 |[K:bass] E4 =F2 | [CE]4 D2 |!ped! z2 E, z E, z | C2!ped-up! ^B,CB,C | %177
 z2 E, z E, z | z2 E, z E, z | z2 E, z E, z | C2 ^B,CB,C | C2 A,4 | .[G,D]2 .[A,D]2 .[B,D]2 | %183
 [A,C]2 G,,A,,G,,A,, | z6 |!ped! .^F,,2 z .[_E,A,=C]!ped-up! .[E,A,C]2 | z6 | %187
!ped! .=G,,2 z .[D,=F,_B,]!ped-up! .[D,F,B,]2 |!ped! .=C,,2 z .[E,=G,_B,=C] .[E,G,B,C]2 | %189
 z6!ped-up! | z6 ||[K:F] F,,2 .[C,F,A,] z .[C,F,A,] z | C,,2 .[C,F,A,] z .[C,F,A,] z | %193
 G,,2 .[G,B,C] z .[G,B,C] z | .C,2 z2 z2 | .G,,2 .[E,B,D]2 .[E,B,D]2 | ._A,,2 .[F,B,D]2 .[F,B,D]2 | %197
 .C,2 .[G,B,C]2 .[G,B,C]2 | z6 | .F,2 .[A,CF] z .[A,CF] z | .C,2 .[A,CF] z .[A,CF] z | %201
 .^F,2 .[=B,^DA] z .[B,DA] z |!ped! =B,,2 [A,C^D^F]4!ped-up! | .E,2 .[^CEA]2 z2 | %204
 .E,,2 .[=B,DE^G]2 z2 |!ped! .A,,2 .[E,A,^C]2 .[A,CE]2 | .[^CEA]2!ped-up! z2 z2 || %207
[K:D]!ped! .D,2 (3A,B,A,!ped-up! [F,D]2 |!ped! .A,,2 (3A,B,A,!ped-up! [F,D]2 | %209
!ped! .D,2[K:treble] (3FGF A!ped-up! z |[K:bass]!ped! .A,,2 .[A,DF]2!ped-up! z2 | %211
!ped! [D,A,]2 z .[DF] .[DF]2 | .A,,2!ped-up! z .A, .A,2 |!ped! B,3 C!ped-up! A,2 | %214
!ped! .A,,2 .[F,A,D]2!ped-up! z2 |!ped! .D,2 (3A,B,A,!ped-up! [F,D]2 | %216
!ped! A,,2 (3A,B,A,!ped-up! [F,D]2 |!ped! .D,2[K:treble] (3FGF A!ped-up! z | %218
[K:bass]!ped! .A,,2 .[A,DF]2!ped-up! z2 |!ped! .[D,A,]2 z .[D,A,] .[D,A,]2 | %220
 .[A,,F,]2!ped-up! z .[F,D] .[F,D]2 |!ped! .[E,A,]2 z .[A,E] .[A,E]2!ped-up! | %222
!ped! .A,,2 .[G,A,E]2!ped-up! z2 |!ped! .E,2 .[A,CG]!ped-up! z z2 | %224
!ped! .A,,2 .[G,A,CE]!ped-up! z z2 |!ped! .E,2 .[A,CG]!ped-up! z z2 | %226
!ped! .A,,2 .[G,A,CE]!ped-up! z z2 |!ped! .E,2 .[A,CG]!ped-up! z z2 | %228
!ped! .A,,2 .[G,A,CE]!ped-up! z z2 |!mp!!ped! .D,,2 .[F,D]2!ped-up! .[F,D]2 | %230
!ped! .A,,2 (3F,G,F,!ped-up! A, z |!ped! D,2 (3A,B,A, [F,D]!ped-up! z | %232
!ped! A,,2 (3A,B,A, [F,D]!ped-up! z |!ped! D,2[K:treble] (3FGF A!ped-up! z | %234
[K:bass]!ped! .A,,2 .[A,DF]2!ped-up! z2 |!ped! .[D,A,]2 z .[DF]!ped-up! .[DF]2 | %236
!ped! .A,,2 z .A,!ped-up! .A,2 |!ped! .[B,,F,]2 z .B,!ped-up! .B,2 | %238
!ped! .E,,2 .[G,B,E]2!ped-up! z2 |!ped! .E,2 .[^A,G]2!ped-up! .B,2 | %240
!ped! .G,,2 .[E,G,B,D]!ped-up! z z2 |!ped! .F,,2 .[F,A,D]!ped-up! z z2 | %242
!ped! .B,,2 .[F,A,D]!ped-up! z z2 |!ped! .A,,2 .[F,=C^D]!ped-up! z z2 | %244
!ped! .A,,2 .[G,A,^CE]!ped-up! z z2 |!ped! .D,2 .[F,D]2 .[A,F]2 | .A,,2 z2 z2!ped-up! | %247
!ped! .E,2 .[A,E]2 .[EG]2 | .A,,2 z2 z2!ped-up! |!ped! .C,2 .[G,A,]2 .[CE]2 | .A,,2 z2!ped-up! z2 | %251
!ped! .D,2 .[F,A,]2 .[A,D]2!ped-up! |!ped! .A,,2 z2!ped-up! z2 |!ped! .F,2 .[A,D]2 .[DF]2!ped-up! | %254
!ped! .F,,2 z2!ped-up! z2 |!ped! .E,2 .[G,A,]2 .[A,E]2!ped-up! |!ped! .E,,2 z2!ped-up! z2 | %257
!ped! .C,2 .[G,A,]2 .[A,C]2!ped-up! |!ped! .A,,2 z2!ped-up! z2 | F6- | F6 | %261
!ped! z2 .[=C,E,_B,]2 .[C,E,B,]2 | .[=C,E,_B,]2 z2!ped-up! z2 | z6 | z6 | %265
 z2 .[D,=F,_B,]2 .[D,F,B,]2 | .[D,_A,=B,]2 z2 =F,,2 | [_E,A,=C]6 | [D,=F,_B,]4 [=C,F,A,]2 || %269
[K:Bb]!pp!!ped! .B,,2 .[F,B,D]2!ped-up! .[F,B,D]2 |!ped! .B,,2 .[F,B,D]2!ped-up! .[F,B,D]2 | %271
!ped! .B,,2 .[F,B,D]2!ped-up! .[F,B,D]2 |!ped! .F,,2 .[F,B,D]2!ped-up! .[F,B,D]2 | %273
!ped! .B,,2 .[F,B,D]2!ped-up! .[F,B,D]2 |!ped! .B,,2 .[F,B,D]2!ped-up! .[F,B,D]2 | %275
!ped! .D,2 .[B,F]2!ped-up! .[B,F]2 |!mp!!ped! .B,,2 .[F,B,D]2!ped-up! .[F,B,D]2 | %277
!mf!!ped! .E,2 .[A,CF]2!ped-up! .[A,CF]2 |!ped! .F,2 .[A,DF]2!ped-up! .[A,DF]2 | %279
!ped! .C,2 .[F,A,E]2!ped-up! .[F,A,E]2 |!ped! .D,2 .[^F,CD]2!ped-up! z2 | %281
!ped! .C,2 .[=F,A,E]2!ped-up! .[F,A,E]2 |!ped! .D,2 .[^F,CD]2!ped-up! z2 | %283
!ped!!>(! .C,2 .[=F,A,E]2!ped-up! .[F,A,E]2 |!ped! .F,,2 .[F,A,E]2!ped-up! .[F,A,E]2!>)! | %285
!pp!!ped! .G,,2 .[G,B,D]2!ped-up! .[G,B,D]2 |!ped! .B,,2 .[B,D]2!ped-up! .[B,D]2 | %287
!ped! .A,,2 .[A,CD]2!ped-up! .[A,CD]2 |!ped! .D,2 .[A,C^F]2!ped-up! .[A,CF]2 | %289
!mp!!ped! .=B,,2 .[^F,=B,D]2!ped-up! .[F,B,D]2 |!ped! .=B,,2 .[^F,=B,D]2!ped-up! .[F,B,D]2 | %291
!ped! .^C,2 .[^F,^C=E]2!ped-up! .[F,CE]2 |!ped! .^F,,2 .[^F,^A,=E]2!ped-up! .[F,A,E]2 | %293
!ped! z2 .[=A,DF]2!ped-up! .[A,DF]2 |!ped! z2 .[A,DF]2!ped-up! .[A,DF]2 | %295
!ped! z2 .[^F,_E]2!ped-up! .[G,E]2 |!ped! z2 .[_A,=F]2!ped-up! .[B,E_G]2 | %297
!ped! z2 .[F,B,D]2 .[F,B,D]2 | z2"_dim." .[F,B,D]2!ped-up! .[F,B,D]2 | %299
!ped! .[F,,,F,,]2 .[F,A,E]2!ped-up! .[F,A,E]2 |!ped! .F,,2 .[F,A,E]2!ped-up! .[F,A,E]2 | %301
!pp!!ped! B,,2 .[F,B,]!ped-up! z z2 | D,2 .[F,B,D] z z2 | G,2 .[B,D] z z2 | %304
 B,,2 .[F,B,D] z .[F,B,D] z | D,2 .[F,B,] z .[F,B,] z | C,2 .[F,A,E] z .[F,A,E] z | %307
 !>!F,,2 .[F,A,] z z2 | G,,2 .[F,B,] z z2 | A,,2 .[F,C] z z2 | B,,2 .[G,B,] z z2 | %311
 C,2 .[F,A,] z z2 | !>!F,,2 [G,B,] z [A,C] z |!sfz!!ped! [B,,,B,,]2!mf! .[F,B,D]!ped-up! z z2 | %314
!sfz!!ped! D,2!mf! .[F,B,D]!ped-up! z z2 |!sfz!!ped! G,,2!mf! .[D,B,]!ped-up! z z2 | %316
!mp!!ped! A,,2 .[F,A,D]!ped-up! z .[F,A,D] z |!ped! A,,2 .[F,A,D]!ped-up! z .[F,A,D] z | %318
!ped! A,,2 .[G,A,^C]!ped-up! z .[G,A,C] z |!ped! D,2 .[F,A,D]!ped-up! z z2 | %320
!ped! B,,2 .[F,A,D]!ped-up! z z2 |!ped! B,,2 .[D,A,]!ped-up! z z2 | %322
!ped! C,2 .[G,A,E]!ped-up! z z2 |!ped! F,,2 .[E,F,A,]!ped-up! z z2 | %324
!ped! B,,2 .[B,D]!ped-up! z z2 ||[K:Eb]!mf!!ped! E,2 [G,B,E] z!ped-up! [G,B,E] z | %326
 B,,2 [B,E] z [B,E] z |!ped! E,2 [G,B,E] z!ped-up! [G,B,E] z | B,,2 [B,E] z [B,E] z | %329
!ped! E,2 [B,EG] z!ped-up! [B,EG] z |!ped! B,,2 [B,EG] z!ped-up! [B,EG] z | %331
!ped! E,2 [B,EG] z!ped-up! [B,EG] z |!ped! !>!F,,2 [A,CF] z!ped-up! [A,CF] z | %333
!ped! B,,2 [A,B,D] z!ped-up!!mf! [A,B,D] z |!ped! F,2 [A,B,F] z!ped-up! [A,B,F] z | %335
!ped! B,,2 [A,B,D] z!ped-up! [A,B,D] z |!ped! F,2 [A,B,F] z!ped-up! [A,B,F] z | %337
!ped! B,,2 [A,B,D] z!ped-up! [A,B,D] z |!ped! F,2 [A,B,D] z!ped-up! [A,B,D] z | %339
!ped! B,,2 [A,B,D] z!ped-up! [A,B,D] z |!ped! [E,,E,]2 [G,B,E] z!ped-up! [G,B,E] z | %341
!ped! E,2 [G,B,E] z!ped-up!!mp! [G,B,E] z | B,,2 [B,E] z [B,E] z | %343
!ped! E,2 [G,B,E] z!ped-up! [G,B,E] z | B,,2 [B,E] z [B,E] z | %345
!ped! E,2 [G,B,E] z!ped-up! [G,B,E] z |!ped! E,2 [G,B,E] z!ped-up! [G,B,E] z | %347
!mf!!ped! E,2 [B,_DE] z!ped-up! [B,DE] z |!ped! G,,2 [E,B,_D] z!ped-up! [E,B,D] z | %349
!pp!!ped! A,,2 [A,CF] z!ped-up! [A,CF] z |!ped! B,,2 [G,B,] z!ped-up! [G,B,] z | %351
!ped! B,,2 [A,B,D] z!ped-up! [A,B,D] z |!ped! E,2 [G,B,E] z!ped-up! [G,B,E] z | %353
!mp!!ped! !>!F,,2 [D,A,B,] z!ped-up! [D,A,B,] z |!ped! G,,2 [G,B,E] z!ped-up! [G,B,E] z | %355
!ped! B,,2 [A,B,] z!ped-up! [A,B,] z |!ped! C,2 [G,C] z!ped-up! [G,C] z | %357
!mf!!ped! !>!F,,2 [F,=A,E] z!ped-up! z2 |!ped! G,,2 [G,B,E] z!ped-up! z2 | %359
!ped! B,,2 [B,D] z!ped-up! z2 |!ped! E,,2 [G,B,E]!ped-up! z z2 |!ped! !>!F,,2 [A,B,] z!ped-up! z2 | %362
!ped! G,,2 [G,B,] z!ped-up! x2 | B,,2!mp! [A,B,D]2 [A,B,D]2 | E,2 [G,B,E]2 z2 | %365
!ped! F,,2 [A,B,] z!ped-up! z2 |!ped! _G,,2 [_G,B,] z!ped-up! z2 |!ped! F,,2 [F,C] z!ped-up! z2 | %368
!ped! D,,2 [D,=A,C] z!ped-up! x2 |!mp! _C,2 [_G,_CE]2 [G,CE]2 | B,,2 [=G,B,E]2 [G,B,E]2 | %371
 [B,D] z .[A,B,] z .[F,B,] z |!ped! E,,2 [E,G,B,] z!ped-up! [E,G,B,] z | [EG]2 [B,F]2 [G,E]2 | %374
!ped! z2 .[E,B,]2 .[E,B,]2 | [EG]2!ped-up! [B,F]2 [G,E]2 |!ped! z2 .[E,B,]2 .[E,B,]2 | %377
 [EG]2!ped-up! [B,F]2 [G,E]2 |!ped! z2 .[E,B,]2!ped-up! z2 |!ped! z2 .[B,,F,B,]2!ped-up! z2 | %380
!ped! z2 .[E,B,E]2 .[E,B,E]2 | [EG]2!ped-up! [B,F]2 [G,E]2 |!ped! z2 .[E,B,]2 .[E,B,]2 | %383
 E2!ped-up! B,2 G,2 | .E,2 .B,,2 .G,,2 | F,,2 [E,,G,,]2 [B,,,F,,]2 | %386
!ped! !>![E,,,E,,]2 .[G,B,E]2 .[G,B,E]2!ped-up! | %387
!ped! !arpeggio!!>![B,,,B,,]2 .[G,B,E]2 .[G,B,E]2!ped-up! | %388
!ped! !arpeggio!!>![E,,B,,E,]2 .[G,B,E]2 .[G,B,E]2!ped-up! | %389
!ped! !arpeggio!!>![B,,,B,,]2 .[G,B,E]2 .[G,B,E]2!ped-up! | %390
!ped! !arpeggio!!>![E,,B,,E,]2 .[G,B,E]2 .[G,B,E]2!ped-up! | B,2 C2 _D2 |!ped! B,2 =D z D z | %393
 !>!F,,2 [B,D] z!ped-up! z2 |!ped! B,,2 [A,B,DF] z!ped-up! z2 |!ped! A,,2 [A,CE] z!ped-up! z2 | %396
!ped! !arpeggio![_D,,A,,_D,]2 [A,_DF] z!ped-up! z2 |!ped! !>![_F,,,_F,,]2 [A,_C_F] z!ped-up! z2 | %398
!ped! !>!=F,,2 [B,DA] z [B,DA]!ped-up! z |!ped! B,,2 [A,CF]2 [B,F]2!ped-up! | %400
!ped! E,2 [B,E] z [B,E] z | E,,2 [B,E] z!ped-up! z2 |!ped! E,2 [B,EG] z!ped-up! z2 | %403
!ped! B,,2 [B,EG] z!ped-up! z2 |!ped! E,2 [B,EG] z!ped-up! z2 | %405
!ped! B,,2"^cresc." [G,B,E] z [G,B,E]!ped-up! z |!ped! E,2 [G,B,E] z [G,B,E] z!ped-up! | %407
 _D2 [B,D] z [B,D] z |!ped! z2 [A,C] z [A,C] z | z2 [A,C] z!ped-up! [F,A,_D]2 | %410
!ped! z2 [E,A,C] z!ped-up! z2 |!ped! z2 [_G,_CE] z!ped-up! z2 |!ped! z2 [G,B,E] z!ped-up! z2 | %413
!ped! z2 [G,B,_D=E] z!ped-up! z2 |!ped! F,,2 C2 _C2!ped-up! |!ped! [B,,,B,,]2 [B,D]4!ped-up! | %416
!ped! [E,,,E,,]2 [B,,E,G,] z [E,G,B,] z | [G,B,E] z G2!ped-up! E2 |!ped! B,6- | B,2 C2!ped-up! D2 | %420
!ped! E6 | E2 G2!ped-up! E2 |!ped! B,6 | B,2 C2 D2!ped-up! |!ped! z2 [E,G,B,] z [G,B,E] z | %425
 z2 [B,EG] z [EGB] z | z D{/F} EC!ped-up!B,=A, | B,G, E,D,{/F,}E,C, | B,,D, E,G,B,D | %429
[K:treble] EG B z[K:bass] !>![B,,,B,,] z | !>![E,,,E,,] z z4 |] %431
V:3
 x2 | x8 | x8 | x8 |!8va(! x4!8va)! x4 | [ABd]6 =d2 | [AB^d]6 =d2 | [^dfa]2 d2 d x x2 | x8 | x8 | %10
 x8 | x8 ||[M:3/4] x6 | x6 | z2 [GB] z [GB] z | x6 | x6 | x6 | z2!pp! [FB] z [FB] z | x6 | x6 | %21
 x6 | x6 | x6 | B6 | x6 | D4 D z | x6 | x6 | x6 | x6 | x6 | x6 | x6 | x6 | x6 | x6 | x6 | x6 | x6 | %40
 B6 | B2 c2 d2 | x6 | x6 | x6 | x6 | x6 | x6 | x6 | x6 | x6 | x6 | x6 | x6 | x6 | x6 | [da]4 x2 | %57
 x6 | z2 [GB] z [GB] z | z2 [GB] z x2 | [da]4 x2 | x6 | z2 [df] z [df] z | z2!>(! [df] z z2!>)! | %64
 x6 | x6 | x6 | z2!<(! e2 ^e2!<)! | [df]4 B2 | z2 [df]2 [d^^f]2 | [eg]4 B2 | x6 | x6 | x6 | %74
 z2 [GB] z [GB] z | z2 [GB]2 z2 | [Bf]4 z2 | x6 | z2"_cresc." [E=G] z [EG] z | z2 [E^G] z x2 | x6 | %81
 x6 | x6 | x6 | x6 | x6 | x6 | =G4 ^A2 | x6 | x6 | x6 | x6 | x6 | x6 | x6 | x6 | x6 | x6 | %98
 z2 [AB] z [AB] z | z2 [AB] z!8va(! x2 | x6 | x6 | x6 | x4!8va)! x2 | x6 | x6 | %106
 z2!pp! [GB] z [GB] z | z2!pp! [GB] z!8va(! x2 | x6 | x6 | x6 | x6 | x6 | x6!8va)! | [Ac]6- | %115
 [Ac]4 x2 | x6 | x6 | x6 | x6 | x6 | x6 | x6 | x6 | x6 | x6 | x6 | x6 | x6 | x6 | x6 | x6 | x6 | %133
 x6 | x6 | x6 | x6 | x6 | x6 | x6 | x6 ||[K:A] z2!pp! [A,C] z z2 | x6 | x6 | x6 | x6 | x6 | B4 A2 | %148
 x6 | x6 | G6 | x6 | x6 | x6 | x6 | [=Gc]6 | [=G_B-]2 =F2 ^G2 | x6 | G6 | z2 E z E z | x6 | B4 A2 | %162
 [EG]4 x2 | z2 E2 d2 | c4 A2 | B4 A2 | [GB]4 x2 | z2 E2 d2 | x6 | x2 c2 B2 | x6 | x6 | x2 A4 | %173
 [=GB]4 A2 | =G4 ^G2 | C6 | x6 | x6 | x6 | x6 | x6 | ^d6 | x6 | x6 | x6 | x6 | x6 | x6 | x6 | x6 | %190
 x6 ||[K:F] x6 | x6 | x6 | x6 | x6 | x6 | x6 | x6 | x6 | x6 | x6 | x6 | x6 | x6 | x6 | x6 || %207
[K:D] x6 | x6 | x6 | x6 | x6 | x6 | x6 | x6 | x6 | x6 | x6 | x6 | x6 | x6 | x6 | x6 | x6 | x6 | %225
 x6 | x6 | x6 | x6 | x6 | x6 | x6 | x6 | x6 | x6 | x6 | x6 | x2 ^d4 | x6 | x6 | x6 | x6 | x6 | x6 | %244
 x6 | x6 | x6 | x6 | x6 | x6 | x6 | x6 | x6 | x6 | x6 | d2 c3 B | d2 c4- | c2!>(! d2 ^d2 | %258
 e2 A4!>)! | x6 | x6 | x6 | x6 | x6 | x6 | x6 | x6 | x6 | x6 ||[K:Bb] x6 | x6 | x6 | x6 | x6 | x6 | %275
{/B-d} B6- | B6 |{/A} e4 d2 |{/FA} d4 c2 | x6 | x6 | x6 | x6 | x6 | x6 | x6 | x6 | x6 | x6 | x6 | %290
 x6 | x6 | x6 | x6 | x6 | x6 | x6 | x6 | x6 | x6 | x6 | x6 | x6 | x6 | x6 | x6 | x6 | G4 F2 | x6 | %309
 x6 | x6 | x6 | x6 | x6 | x6 | x6 | x6 | x6 | x6 | A4 G2 | x6 | x6 | x6 | x4 E2 | %324
 [GB]2 [^F=A]2 [=F_A]2 ||[K:Eb] [EG]2 x4 | x6 | x6 | x6 | x6 | x6 | g6 | x6 | x6 | x6 | x6 | x6 | %337
 x6 | x6 | x6 | x6 | x6 | x6 | x6 | x6 | x6 | x6 | x6 | x6 | x6 | x6 | x6 | x6 | x6 | x6 | x6 | %356
 x6 | e6 | x6 | x6 | x6 | D4 (3B,FA | x6 | x6 | x6 | D4 (3B,FA | x6 | x6 | x6 | x6 | x6 | x6 | x6 | %373
 x6 | x6 | x6 | x6 | x6 | x6 | x6 | x6 | x6 | x6 | x6 |[K:bass] x6 | x4[K:treble] x2 | x6 | x6 | %388
 x6 | x6 | x6 | x6 | z2!p! [AB] z [AB] z | z2!p! [AB] x!8va(! x2 | x6 | x6 | x6 | x4!8va)! x2 | %398
 x6 | x6 | z2!>(! [GB] z [GB] z | z2 [GB] z!>)!!8va(! x2 | x6 | x6 | x6 | x6 | x6 | x6!8va)! | %408
 [Ac]6 | x6 | x6 | x6 | x6 | x6 | x6 | x6 | x6 | x6 | z2 [AB] z [AB] z | x6 | x6 | x6 | %422
 z2!>(! [AB] z [AB] z!>)! |!8va(! x6 | x6!8va)! | x6 | x6 | x6 | x6 | x6 | x6 |] %431
V:4
 x2 | x6[K:treble] x2 | x6[K:bass] x2 | x6[K:treble] x2 | x6[K:bass] x2 | x8 | x6[K:treble] x2 | %7
 x8 | x8 | x8 | x8 | x8 ||[M:3/4][K:bass] x6 | x6 | x6 | x6 | x6 | x6 | x6 | x6 | x6 | x6 | x6 | %23
 x6 | x6 | x6 | x6 | x6 | x6 | x6 | x6 | x6 | x6 | x6 | x6 | x6 | x6 | x6 | x6 | x6 | x6 | x6 | %42
 x6 | x6 | x6 | x6 | x6 | x6 | x6 | x6 | x6 | x2[K:treble] x4 | x6 | x6 | x6 | x2[K:bass] x4 | %56
 [F,B,]6 | B,,6 | x6 | x6 | x6 | x6 | x6 | x6 | x6 | x6 | x6 | x6 | x6 | x6 | x6 | x6 | x6 | x6 | %74
 x6 | x6 | x6 | x6 | x6 | x6 | x6 | x6 | x6 | x6 | x6 | x6 | x6 | C,4 F,2 | x6 | x6 | x6 | x6 | %92
 x6 | x6 | x6 | x6 | x6 | ^E,6 | F,6 | x6 | x6 | x6 | x6 | x6 | x6 | x6 | x6 | x6 | x6 | x6 | x6 | %111
 x6 | x6 | ^E,6 | !>!F,,6- | F,,2 x4 | A,,6 | =C,6 | [=F,,=C,]6 | x6 | x6 | x6 | x6 | x6 | x6 | %125
 x6 | x6 | x6 | x6 | x6 | x6 | x6 | x4[K:treble] x2 |[K:bass] x2[K:treble] x4 | %134
[K:bass] x2[K:treble] x4 |[K:bass] E,6- | E,6 | x6 | x6 | x6 | x6 ||[K:A] x6 | x6 | x6 | x6 | x6 | %146
 x6 | x6 | x6 | x6 | x6 | x6 | x6 | x6 | x6 | x6 | x6 | x6 | z2 E,,2 z2 | A,,6- | A,,6 | %161
 G,,4 A,,2 | x6 | C,4 B,,2 | x6 | G,,4 A,,2 | x6 | C,4 B,,2 | A,,2 x4 | x2[K:treble] x4 | x6 | x6 | %172
 x6 |[K:bass] z2 D,4 | z2 E,2 z2 | A,,6 | x6 | E,,4 A,,2 | A,,6 | E,,4 A,,2 | x6 | F,6 | E,6 | x6 | %184
 x6 | x6 | x6 | x6 | x6 | x6 | x6 ||[K:F] x6 | x6 | x6 | x6 | x6 | x6 | x6 | x6 | x6 | x6 | x6 | %202
 x6 | x6 | x6 | x6 | x6 ||[K:D] x6 | x6 | x2[K:treble] x4 |[K:bass] x6 | x6 | x6 | x6 | x6 | x6 | %216
 x6 | x2[K:treble] x4 |[K:bass] x6 | x6 | x6 | x6 | x6 | x6 | x6 | x6 | x6 | x6 | x6 | x6 | x6 | %231
 x6 | x6 | x2[K:treble] x4 |[K:bass] x6 | x6 | x6 | x6 | x6 | x6 | x6 | x6 | x6 | x6 | x6 | x6 | %246
 x6 | x6 | x6 | x6 | x6 | x6 | x6 | x6 | x6 | x6 | x6 | x6 | x6 | z2 .[F,^A,C]2 .[F,A,C]2 | %260
 z2 .[F,^A,C]2 .[F,A,C]2 | x6 | x6 | x6 | x6 | x6 | x6 | x6 | x6 ||[K:Bb] x6 | x6 | x6 | x6 | x6 | %274
 x6 | x6 | x6 | x6 | x6 | x6 | x6 | x6 | x6 | x6 | x6 | x6 | x6 | x6 | x6 | x6 | x6 | x6 | x6 | %293
 D,6 | F,6 | _E,6 | C,6 | !>!F,,6- | F,,6 | x6 | x6 | x6 | x6 | x6 | x6 | x6 | x6 | x6 | x6 | x6 | %310
 x6 | x6 | x6 | x6 | x6 | x6 | x6 | x6 | x6 | x6 | x6 | x6 | x6 | x6 | x6 ||[K:Eb] x6 | x6 | x6 | %328
 x6 | x6 | x6 | x6 | x6 | x6 | x6 | x6 | x6 | x6 | x6 | x6 | x6 | x6 | x6 | x6 | x6 | x6 | x6 | %347
 x6 | x6 | x6 | x6 | x6 | x6 | x6 | x6 | x6 | x6 | x6 | x6 | x6 | x6 | x6 | x6 | x6 | x6 | x6 | %366
 x6 | x6 | x6 | x6 | x6 | x6 | x6 | x6 | x6 | x6 | x6 | x6 | x6 | x6 | x6 | x6 | x6 | x6 | x6 | %385
 x6 | x6 | x6 | x6 | x6 | x6 | =E,6 | F,6 | x6 | x6 | x6 | x6 | x6 | x6 | x6 | x6 | x6 | x6 | x6 | %404
 x6 | x6 | x6 | =E,6 | F,,6 | F,,2 z4 | A,,6 | _C,6 | G,,6 | [C,,C,]6 | x6 | x2 B,2 A,2 | x6 | x6 | %418
 F,6 | B,, x x4 | z2 [E,G,B,] z [E,G,B,] z | x6 | F,6 | B,,6 | E,,6 | E,,6 | x6 | x6 | x6 | %429
[K:treble] x4[K:bass] x2 | x6 |] %431

